assets/svg/share_moment.svg

<svg height="32" viewBox="0 0 1024 1024" width="32" xmlns="http://www.w3.org/2000/svg"><path d="m512 954.24a442.24 442.24 0 1 0 -442.24-442.24 442.08 442.08 0 0 0 442.24 442.24zm0-30.88a401.12 401.12 0 0 1 -137.12-21.92v-279.84l274.24 276.64a356 356 0 0 1 -137.12 25.12zm285.28-119.68a400 400 0 0 1 -112 81.28l-198.08-197.92 389.44 1.92a359.52 359.52 0 0 1 -79.2 114.72zm118.24-289.28a400 400 0 0 1 -21.92 136.96h-279.84l276.8-273.92a355.04 355.04 0 0 1 25.12 136.96zm-232.8-368a355.68 355.68 0 0 1 114.56 79.04 402.88 402.88 0 0 1 81.44 112l-197.76 198.08zm-170.72 507.2a141.6 141.6 0 1 1 141.6-141.6 141.6 141.6 0 0 1 -141.6 141.6zm0-548.32a400 400 0 0 1 137.12 22.72v280l-274.08-277.6a356.32 356.32 0 0 1 136.96-25.12zm-285.28 119.84a405.44 405.44 0 0 1 112-81.44l198.4 198.08-389.44-2.08a355.68 355.68 0 0 1 79.04-114.56zm-118.08 289.28a400 400 0 0 1 21.92-136.96h279.84l-276.8 273.92a357.92 357.92 0 0 1 -24.96-136.96zm234.72-21.12-1.92 389.44a357.12 357.12 0 0 1 -114.72-79.04 401.76 401.76 0 0 1 -81.28-112z" fill="#fff"/><path d="m649.12 128a400 400 0 0 0 -137.12-22.72 356.32 356.32 0 0 0 -137.12 25.12l274.08 276.8z" fill="#fc6b4f"/><path d="m797.44 225.12a355.68 355.68 0 0 0 -114.56-79.04l-1.92 389.44 197.92-198.08a402.88 402.88 0 0 0 -81.44-112.32z" fill="#7838f2"/><path d="m893.76 651.36a400 400 0 0 0 21.92-136.96 355.04 355.04 0 0 0 -25.12-136.96l-276.8 273.92z" fill="#5698f3"/><path d="m685.12 884.96a400 400 0 0 0 112-81.28 359.52 359.52 0 0 0 79.2-114.72l-389.44-1.92z" fill="#20e9f4"/><path d="m375.04 901.44a401.12 401.12 0 0 0 136.96 21.92 356 356 0 0 0 136.96-25.12l-273.92-276.64z" fill="#00fd60"/><path d="m341.44 882.72 1.92-389.44-197.92 197.92a401.76 401.76 0 0 0 81.28 112 357.12 357.12 0 0 0 114.72 79.52z" fill="#abfb5b"/><path d="m130.56 377.44a400 400 0 0 0 -21.92 136.96 357.92 357.92 0 0 0 24.96 136.96l276.8-273.92z" fill="#f0e254"/><path d="m339.04 144a405.44 405.44 0 0 0 -112 81.44 355.68 355.68 0 0 0 -79.04 114.56l389.44 2.08z" fill="#f6b351"/></svg>

<svg t="1661261631962" class="icon" viewBox="0 0 1024 1024" version="1.1" xmlns="http://www.w3.org/2000/svg" p-id="25922" width="32" height="32"><path d="M512 954.24A442.24 442.24 0 1 0 69.76 512 442.08 442.08 0 0 0 512 954.24z m0-30.88a401.12 401.12 0 0 1-137.12-21.92V621.6l274.24 276.64A356 356 0 0 1 512 923.36z m285.28-119.68a400 400 0 0 1-112 81.28L487.2 687.04l389.44 1.92a359.52 359.52 0 0 1-79.2 114.72z m118.24-289.28a400 400 0 0 1-21.92 136.96H613.76l276.8-273.92a355.04 355.04 0 0 1 25.12 136.96z m-232.8-368a355.68 355.68 0 0 1 114.56 79.04 402.88 402.88 0 0 1 81.44 112L680.96 535.52zM512 653.6A141.6 141.6 0 1 1 653.6 512 141.6 141.6 0 0 1 512 653.6z m0-548.32A400 400 0 0 1 649.12 128v280L375.04 130.4A356.32 356.32 0 0 1 512 105.28z m-285.28 119.84a405.44 405.44 0 0 1 112-81.44l198.4 198.08-389.44-2.08a355.68 355.68 0 0 1 79.04-114.56zM108.64 514.4a400 400 0 0 1 21.92-136.96h279.84L133.6 651.36a357.92 357.92 0 0 1-24.96-136.96z m234.72-21.12l-1.92 389.44a357.12 357.12 0 0 1-114.72-79.04 401.76 401.76 0 0 1-81.28-112z" fill="#FFFFFF" p-id="25923"></path><path d="M649.12 128A400 400 0 0 0 512 105.28a356.32 356.32 0 0 0-137.12 25.12l274.08 276.8z" fill="#FC6B4F" p-id="25924"></path><path d="M797.44 225.12a355.68 355.68 0 0 0-114.56-79.04l-1.92 389.44 197.92-198.08a402.88 402.88 0 0 0-81.44-112.32z" fill="#7838F2" p-id="25925"></path><path d="M893.76 651.36a400 400 0 0 0 21.92-136.96 355.04 355.04 0 0 0-25.12-136.96l-276.8 273.92z" fill="#5698F3" p-id="25926"></path><path d="M685.12 884.96a400 400 0 0 0 112-81.28 359.52 359.52 0 0 0 79.2-114.72l-389.44-1.92z" fill="#20E9F4" p-id="25927"></path><path d="M375.04 901.44A401.12 401.12 0 0 0 512 923.36a356 356 0 0 0 136.96-25.12L375.04 621.6z" fill="#00FD60" p-id="25928"></path><path d="M341.44 882.72l1.92-389.44L145.44 691.2a401.76 401.76 0 0 0 81.28 112 357.12 357.12 0 0 0 114.72 79.52z" fill="#ABFB5B" p-id="25929"></path><path d="M130.56 377.44a400 400 0 0 0-21.92 136.96 357.92 357.92 0 0 0 24.96 136.96l276.8-273.92z" fill="#F0E254" p-id="25930"></path><path d="M339.04 144a405.44 405.44 0 0 0-112 81.44 355.68 355.68 0 0 0-79.04 114.56l389.44 2.08z" fill="#F6B351" p-id="25931"></path></svg>
